src/images/blob-dark-green.svg

<?xml version="1.0" encoding="utf-8"?>
<!-- Generator: Adobe Illustrator 26.0.2, SVG Export Plug-In . SVG Version: 6.00 Build 0)  -->
<svg version="1.1" id="Layer_1" xmlns="http://www.w3.org/2000/svg" xmlns:xlink="http://www.w3.org/1999/xlink" x="0px" y="0px"
	 viewBox="0 0 1920 3279" style="enable-background:new 0 0 1920 3279;" xml:space="preserve">
<style type="text/css">
	.st0{clip-path:url(#SVGID_00000114789126049072453440000003171471187428500615_);}
	.st1{fill:#32A582;}
</style>
<g>
	<defs>
		<rect id="SVGID_1_" y="0" width="1920" height="3279"/>
	</defs>
	<clipPath id="SVGID_00000170247397385338541480000000882693981392162703_">
		<use xlink:href="#SVGID_1_"  style="overflow:visible;"/>
	</clipPath>
	<g style="clip-path:url(#SVGID_00000170247397385338541480000000882693981392162703_);">
		<path class="st1" d="M-71-29.5v468c0,0-18.7,224.6,243.4,0c262.1-224.6,636.5-405.6,867.3-312s411.8,143.5,611.5,127.9
			s330.7-209,449.3-40.6c118.6,168.5,0-418.1,0-418.1l-536.6-56.2H921.1H290.9L-71-29.5z"/>
		<path class="st1" d="M1582.5,1898.6c0,0-87.4,474.2-443,549.1c-355.7,74.9-156,511.7,149.8,399.4
			c305.8-112.3,630.2-511.7,561.6-761.3S1582.5,1898.6,1582.5,1898.6z"/>
		<path class="st1" d="M-619.1,1335.4c0,0,698.9-773.7,911-349.4c212.1,424.3,867.3,873.6,56.2,1110.7s-1503.8,524.1-1129.4,124.8
			S-619.1,1335.4-619.1,1335.4z"/>
		<path class="st1" d="M1601.3,1081.2c0,0-349.4,143.5-143.5,274.6s411.8,87.4,280.8,0c-131-87.4-212.2-212.2-56.2-193.4
			C1838.4,1181,1601.3,1081.2,1601.3,1081.2z"/>
	</g>
</g>
</svg>

<svg width="1920" height="3279" viewBox="0 0 1920 3279" fill="none" xmlns="http://www.w3.org/2000/svg">
<g clip-path="url(#clip0_36_29)">
<path d="M-71.0004 -29.5V438.5C-71.0004 438.5 -89.7004 663.1 172.4 438.5C434.5 213.9 808.9 32.9 1039.7 126.5C1270.5 220.1 1451.5 270 1651.2 254.4C1850.9 238.8 1981.9 45.4 2100.5 213.8C2219.1 382.3 2100.5 -204.3 2100.5 -204.3L1563.9 -260.5H921.1H290.9L-71.0004 -29.5Z" fill="#32A582"/>
<path d="M1582.5 1898.6C1582.5 1898.6 1495.1 2372.8 1139.5 2447.7C783.8 2522.6 983.5 2959.4 1289.3 2847.1C1595.1 2734.8 1919.5 2335.4 1850.9 2085.8C1782.3 1836.2 1582.5 1898.6 1582.5 1898.6Z" fill="#32A582"/>
<path d="M-619.1 1335.4C-619.1 1335.4 79.8003 561.7 291.9 986C504 1410.3 1159.2 1859.6 348.1 2096.7C-463 2333.8 -1155.7 2620.8 -781.3 2221.5C-406.9 1822.2 -619.1 1335.4 -619.1 1335.4Z" fill="#32A582"/>
<path d="M1601.3 1081.2C1601.3 1081.2 1251.9 1224.7 1457.8 1355.8C1663.7 1486.9 1869.6 1443.2 1738.6 1355.8C1607.6 1268.4 1526.4 1143.6 1682.4 1162.4C1838.4 1181 1601.3 1081.2 1601.3 1081.2Z" fill="#32A582"/>
</g>
<defs>
<clipPath id="clip0_36_29">
<rect width="1920" height="3279" fill="white"/>
</clipPath>
</defs>
</svg>
